resources/icons/16px/help.svg

<svg xmlns="http://www.w3.org/2000/svg" viewBox="0 0 16 16">
  <path d="M8 0C3.58 0 0 3.58 0 8s3.58 8 8 8 8-3.58 8-8-3.58-8-8-8m1 13H7v-2h2zm1.93-6.52c-.14.32-.35.64-.62.97L9.25 8.83c-.12.15-.24.29-.28.42s-.09.3-.09.52V10H7.12V8.88s.05-.51.21-.71L8.4 6.73c.22-.26.35-.49.44-.68s.12-.38.12-.58c0-.3-.1-.55-.28-.75-.18-.19-.44-.28-.76-.28-.33 0-.59.1-.78.29s-.33.46-.4.81c-.03.11-.1.15-.2.14l-1.7-.25c-.12-.01-.16-.08-.14-.19.12-.82.46-1.47 1.03-1.94q.855-.72 2.25-.72c.47 0 .9.07 1.29.22s.72.34 1 .59.49.55.65.89c.15.35.22.72.22 1.12s-.07.75-.21 1.08"/>
</svg>

<?xml version="1.0" encoding="utf-8"?>
<!-- Generator: Adobe Illustrator 17.1.0, SVG Export Plug-In . SVG Version: 6.00 Build 0)  -->
<!DOCTYPE svg PUBLIC "-//W3C//DTD SVG 1.1//EN" "http://www.w3.org/Graphics/SVG/1.1/DTD/svg11.dtd">
<svg version="1.1" id="Layer_1" xmlns="http://www.w3.org/2000/svg" xmlns:xlink="http://www.w3.org/1999/xlink" x="0px" y="0px"
	 viewBox="0 0 16 16" enable-background="new 0 0 16 16" xml:space="preserve">
<g id="help_2_">
	<g>
		<path fill-rule="evenodd" clip-rule="evenodd" d="M8,0C3.58,0,0,3.58,0,8s3.58,8,8,8s8-3.58,8-8S12.42,0,8,0z M9,13H7v-2h2V13z
			 M10.93,6.48c-0.14,0.32-0.35,0.64-0.62,0.97L9.25,8.83C9.13,8.98,9.01,9.12,8.97,9.25C8.93,9.38,8.88,9.55,8.88,9.77V10H7.12
			V8.88c0,0,0.05-0.51,0.21-0.71L8.4,6.73c0.22-0.26,0.35-0.49,0.44-0.68c0.09-0.19,0.12-0.38,0.12-0.58c0-0.3-0.1-0.55-0.28-0.75
			C8.5,4.53,8.24,4.44,7.92,4.44c-0.33,0-0.59,0.1-0.78,0.29c-0.19,0.19-0.33,0.46-0.4,0.81c-0.03,0.11-0.1,0.15-0.2,0.14l-1.7-0.25
			C4.72,5.42,4.68,5.35,4.7,5.24C4.82,4.42,5.16,3.77,5.73,3.3C6.3,2.82,7.05,2.58,7.98,2.58c0.47,0,0.9,0.07,1.29,0.22
			c0.39,0.15,0.72,0.34,1,0.59c0.28,0.25,0.49,0.55,0.65,0.89C11.07,4.63,11.14,5,11.14,5.4S11.07,6.15,10.93,6.48z"/>
	</g>
</g>
</svg>
